X: 1
T: Dalton's Delight
M: 6/8
L: 1/8
R: jig
K: Gmaj
F|:E2E FEF|G2BG2F|E2E FEF|G4G|B2B GAB|A3F2F|GFE FED|1E3E2F:|2E3E2D|
|:B,2B, B,DF|A2A AFD|B,2B, B,DF|A3A2G|B2B GAB|A3F2F|GFE FED|1E3E2D:|2E3E2A|
B2B GAB|A2GF2F|G2G EFG|F3D2D|E2E CDE|D2GB2d|cBA BAG|A3A2A|
B2B GAB|A2GF2F|G2G EFG|F3D2D|E2E CDE|D2GB2d|BAG AGF|G3F3||
